icons/restaurant-fill.svg

<svg viewBox="0 0 24 24" fill="currentColor" xmlns="http://www.w3.org/2000/svg"><path d="M21 2V22H19V14H16V7C16 4.23858 18.2386 2 21 2ZM9 13.9V22H7V13.9C4.71776 13.4367 3 11.419 3 9V3H5V10H7V3H9V10H11V3H13V9C13 11.419 11.2822 13.4367 9 13.9Z"/></svg>

<svg xmlns="http://www.w3.org/2000/svg" viewBox="0 0 24 24">
    <g>
        <path fill="none" d="M0 0h24v24H0z"/>
        <path d="M21 2v20h-2v-8h-3V7a5 5 0 0 1 5-5zM9 13.9V22H7v-8.1A5.002 5.002 0 0 1 3 9V3h2v7h2V3h2v7h2V3h2v6a5.002 5.002 0 0 1-4 4.9z"/>
    </g>
</svg>
